X: 9956
T: Devil In The Kitchen, The
R: strathspey
M: 4/4
K: Amixolydian
|:gf|eA (3AAA efgf|eA (3AAA a2 gf|eA (3AAA efge|dBGB d2:|
|:fg|aA (3AAA gA (3AAA|aA (3AAA g2 fg|1 aA (3AAA efge|dBGB d2:|2 afge fded|BG (3GGG g2||

